X: 118
T: Atladım Bahçene Girdim
C: Osman Pehlivan
O: Turkey
F: http://compmusic.upf.edu/node/140
N: evic--turku--aksak--atladim_bahcene--rumeli
N: makam= evic
N: form= turku
N: usul= aksak = 9/8
M: 9/8
L: 1/16
K: C _1/4B ^f ^c 
Q: 1/4=168
%%MIDI tuningsystem comma53
^efga fgef d=ecd BcAB AG | FG ABcd ^efgf egf6  | 
w:  ARANAĞME  |   | 
^efga fgef d=ecd BcAB AG | FG AB=c2 BAAG GFF6  | 
w:  ARANAĞME  |   | 
f4 f2f2 f4 a4 g2 | a2 g2f2 g2f4^e4fe  | \
w:  *  At la dım  bah  |  *  *  çe ne  gir dim  a  | 
d4 d2e2 d4 f6 | f2 g2a2 b2a2 gfa2 g2gf  | 
w:  man  gül le ri  fin  |  can  *  *  gi bi  a *  man  *  a  | 
f6fg f^ede f4 eg | f4f2 f2f4a4g2  | a2g2 f2g2 f4 ^e4 fe | 
w:  man   SAZ  |  *  At la dım  bah  |  *  *  çe ne  gir dim  a  | 
d4d2 e2d4f6  | f2g2 a2b2 a2gf a2g2 gf | \
w:  man  gül le ri  fin  |  can  *  *  gi bi  a *  man  *  a  | 
f6 fgf^e def4eg  | 
w:  man   SAZ  | 
f4 e2f2 g2f2 a2g2 =f2 | e3dg2 g2=fe d2d4=cB  | \
w:  *  Ger da nın *  da   |  *  *  üç  be ni  *  *  var  a  | 
A4 A2B2 =c2B2 c2B2 A2 | 
w:  man  her  bi ri  *  mer  | 
A3GG2 GFF4fg f^ede  | f4 e2f2 g2f2 a2g2 =f2 | \
w:  can  *  *  gi *  bi   SAZ  |  *  Ger da nın *  da   | 
e3dg2 g2=fe d2d4=cB  | 
w:  *  *  üç  be ni  *  *  var  a  | 
A4 A2B2 =c2B2 c2B2 A2 | A3GG2 GFF4fg f^ede  | \
w:  man  her  bi ri  *  mer  |  can  *  *  gi *  bi   SAZ  | 
f4 f2f2 f4 a4 g2 | 
w:  *  Sa rı la lım   | 
a3gf2 g2f4^e4f2  | d4 d2^e2 d4 f6 | f2 g2a2 b2a2 gfa2 g2gf  | 
w:  *  *  sar ma şa lım  a  |  man  i ki miz  bir   |  can  *  *  gi bi  a *  man  *  a  | 
f6fg f^ede f4 eg | f4f2 f2f4a4g2  | a3g f2g2 f4 ^e4 f2 | 
w:  man   SAZ  |  *  Sa rı la lım   |  *  *  sar ma şa lım  a  | 
d4d2 ^e2d4f6  | f2g2 a2b2 a2gf a2g2 gf | \
w:  man  i ki miz  bir   |  can  *  *  gi bi  a *  man  *  a  | 
f6 fgf^e def4eg  | 
w:  man   SAZ  | 
f4 e2f2 g2f2 a2g2 =f2 | e3dd2 e=fed =cBd4cB  | \
w:  *  Gel  se nin *  le   |  *  *  kavl_ e *  de *  *  *  lim  a  | 
A2G2 A2B2 =c2B2 c2B2 A2 | 
w:  man  *  ya  o nu  *  sev   | 
A3GG2 GFF4fg f^ede  | f4 e2f2 g2f2 a2g2 =f2 | \
w:  ya  *  *  be *  ni   SAZ  |  *  Gel  se nin *  le   | 
e3dd2 e=fed =cBd4cB  | 
w:  *  *  kavl_ e *  de *  *  *  lim  a  | 
A2G2 A2B2 =c2B2 c2B2 A2 | A3GG2 GFF8z2  | |


